X:1431
T:Big Willie's Wedding
R:Hornpipe
C:Ed Reavy
M:4/4
L:1/8
Z:Joe Reavy
N:Willie was a sight to behold and his wedding was 
N:not in the grand tradition. But everyone 
N:in Barnagrove loved Big Willie.
K:D
FE|DAFA DAFA|BGEd cAFA|fdAf gece|dfed (3cBA (3GFE|
DAFA DAFD|A,CEF GECE|DFAc Bdce|d2 dc d2:||
ed|cdeg fdcd|fgaf bged|cBAB cdef|gbed (3cBA (3GFE|
DFAc BGEd|cAFA fdAf|gecA ^GAce|d2 dc d2:||


